!!! OTL: Berkowitz565
!!! Chapter: 1
!!! Section: V
!!! Page: 143
!!! Mode: 
!!! Encoder: DJB
**kern
*staff1
*I"Piano
=1-
*clefG2
*k[]
*C:
*M4/4
4B-/
4c/
4.d/
8e/
=2
4f#/
4b\
2a/
=3
8b-/L
8a-/J
4g/
8e/L
8d/J
4c/
=4
2B/
2e/
=5
4f/
4e-/
4.d-/
8B/
=6
4A/
4d/
2g/
=7
8g-/L
8cc-/J
4b-\
4f/
4gn/
=8
2r
4f/
4g/
=9
!!linebreak:original
8g#/L
8cc#/J
4b\
8f#/L
8b/J
4a/
=10
8g/L
8f/
8e-/
8d-/J
4c-/
4r
==
*-
